X:1
T:Will You Be Washed in the Blood?
T:Will You Be Washed in the Blood?
T:Edwin Othello Excell
T:Edwin Othello Excell, 1884
T:Public Domain Courtesy of the Cyber Hymnal™
C:Edwin Othello Excell
Z:Public Domain
Z:Courtesy of the Cyber Hymnal™
%%score ( 1 2 ) ( 3 4 )
L:1/8
Q:1/4=101
M:6/8
K:G
V:1 treble 
V:2 treble 
V:3 bass 
V:4 bass 
V:1
 [DB]2 [B,G] [DB]2 [B,G] | [DB]2 [CA] [CA]3 | [CA][CA][CA] [CA][B,G][CF] | ([B,G]2 [CA] [DB]3) | %4
w: 1.~List, the Spir- it|calls for thee,|Will you be washed in the|blood? * *|
w: 2.~Sin- ner, now this|bless- ing claim,|Will you be washed in the|blood? * *|
w: 3.~Christ can wash you|white as snow,|Will you be washed in the|blood? * *|
w: 4.~Je- sus drank the|cup for all,|Will you be washed in the|blood? * *|
 [DB]2 [B,G] [DB]2 [B,G] | [DB]2 [CA] [CA]3 | [CA][CA][CA] [CA][B,G][CF] | [B,G]6 | %8
w: Je- sus died to|make you free,|Will you be washed in the|blood?|
w: Thro’ the dear Re-|deem- er’s name,|Will you be washed in the|blood?|
w: And the wit- ness|you may know,|Will you be washed in the|blood?|
w: Don’t re- ject the|Spir- it’s call,|Will you be washed in the|blood?|
 ([GB][FA])[GB] ([Ac][^GB])[Ac] | [Bd]3 [GB]3 | ([Ac][^GB])[Ac] [Bd]2 [Ac] | [Ac]3 [GB]3 || %12
w: Par- * don will * be|giv- en,|Cleans- * ing you for|Hea- ven.|
w: Claim * Him as * your|Sav- ior,|He * can save for-|ev- er.|
w: You * can know * this|ho- ur,|Of * His sav- ing|pow- er.|
w: Grace * is now * a-|bound- ing,|Joy * thro’ Heav’n re-|sound- ing.|
"^Refrain" c3 c2 [Dc] | B3 [B,G]3 | [Cc][Cc][Cc] [Cc][B,G][CF] | ([B,G]2 [CA] [DB]3) | c3 c2 [Dc] | %17
w: |||||
w: |||||
w: |||||
w: |||||
 B3 [B,G]3 | [DB][CA][B,G] [CA][CE][CF] | [B,G]6 |] %20
w: |||
w: |||
w: |||
w: |||
V:2
 x6 | x6 | x6 | x6 | x6 | x6 | x6 | x6 | x6 | x6 | x6 | x6 || (FED) (FE) x | DDD x3 | x6 | x6 | %16
 (FED) (FE) x | DDD x3 | x6 | x6 |] %20
V:3
 G,2 G, G,2 G, | [D,G,]2 [D,F,] [D,F,]3 | [D,F,][D,F,][D,F,] [D,F,][D,G,][D,A,] | G,6 | %4
w: Will you be washed?|||Washed|
 G,2 G, G,2 G, | [D,G,]2 [D,F,] [D,F,]3 | [D,F,][D,F,][D,F,] [D,F,][D,G,][D,A,] | G,6 | G,3 D,3 | %9
w: in the blood of|||the||
 G,3 G,3 | D,3 D,3 | G,3 G,3 || ([D,A,][D,G,][D,F,]) ([D,A,][D,G,])[D,F,] | %13
w: |||Lamb? * * Will * you|
 ([G,,G,][G,,G,][G,,G,] [G,,G,]3) | [D,F,][D,F,][D,F,] [D,F,][D,G,][D,A,] | G,6 | %16
w: be * * *|washed? Washed in the blood of|the|
 ([D,A,][D,G,][D,F,]) ([D,A,][D,G,])[D,F,] | ([G,,G,][G,,G,][G,,G,] [G,,G,]3) | %18
w: Lamb? * * * * *||
 [D,G,][D,F,][D,G,] [D,F,][D,G,][D,A,] | G,6 |] %20
w: ||
V:4
 G,2 G, G,2 G, | x6 | x6 | G,6 | G,2 G, G,2 G, | x6 | x6 | G,6 | x6 | x6 | x6 | x6 || x6 | x6 | %14
 x6 | G,6 | x6 | x6 | x6 | G,6 |] %20

